X:1
T:Title
%%score { ( 1 3 ) | 2 }
L:1/8
M:6/8
K:D
V:1 treble nm="Grand Piano"
V:3 treble 
V:2 bass 
V:1
 z3 z2[Q:1/4=81] [DF]/[EG]/ | [FA]>[FA][FA] [GB][FA][DF] | [CE]>[B,D][CE] [DF]2 [FA] | %3
 B2 B d>[Ac][GB] | [FA]3- [FA]2 [DF] | [FA]>[FA][FA] [GB][FA][DF] |[M:5/8] [CE]>[B,D][CE] F2 | %7
[M:1/8] B/B/ |[M:3/4] A2 F[CE]/[CF]/- [CF]>[CE] |[M:5/8] D-D- D3 |[M:1/8] [FA]/[FA]/ | %11
[M:3/4] [Fd]2 [Fd]e/d/- d>B | A2- [FA-] [FA]2 F/[EG]/ | [FA]2 [FA][GB] [FA][DF] | C2 C C2 [GA] | %15
 [Fd]>[Fd] [Fd] [Fd]2 [FA]/F/ |[M:7/8] G>BB d3 c/B/ |[M:3/4] A2 F[CA]/[CG]/- [CG]>[CE] | %18
[M:5/8] D-D- D3 |] %19
V:2
 z3 z2 [D,A,] | [D,D]>[D,D][D,D] [D,D][D,D][D,A,] | [A,,A,]>[B,,F,][A,,A,] [D,A,]2 [D,D] | %3
 [G,DG]2 [G,DG] [G,B,G]>[G,C][G,D] | [D,D]3- [D,D]2 [D,A,] | [D,D]>[D,D][D,D] [D,D][D,D][D,A,] | %6
[M:5/8] [A,,A,]>[B,,F,][A,,A,] [D,A,D]2 |[M:1/8][K:treble] [G,D]/[G,DG]/ | %8
[M:3/4] [A,DF]2[K:bass] [A,D][A,,G,]/[A,,A,]/- [A,,A,]>[A,,G,] |[M:5/8] [D,F,A,]2 [D,G,] [D,F,]2 | %10
[M:1/8] [D,D]/[D,D]/ |[M:3/4] [D,A,]2 [D,A,][K:treble][G,B,G]/[G,B,G]/- [G,B,G]>[G,DG] | %12
 [D,D]2 [D,D] [D,D]2 [D,A,D]/[D,A,]/ | [D,D]2 [D,D][D,D] [D,D][D,A,] | %14
 [A,,A,]2 [A,,A,] [A,,A,]2 [A,,A,] | [D,A,]>[D,A,] [D,A,] [D,A,]2 [D,D]/[D,A,D]/ | %16
[M:7/8][K:treble] [G,B,D]>[G,DG][G,DG] [G,B,G]3 [G,CA]/[G,DG]/ | %17
[M:3/4] [A,DF]2[K:bass] [A,D][A,,A,]/[A,,A,]/- [A,,A,]>[A,,G,] |[M:5/8] [D,F,A,]2 [D,G,] [D,F,]2 |] %19
V:3
 x6 | x6 | x6 | x6 | x6 | x6 |[M:5/8] x5 |[M:1/8] x |[M:3/4] x6 |[M:5/8] z2 B, A,2 |[M:1/8] x | %11
[M:3/4] x6 | F2 z2 z2 | x6 | E6 | x6 |[M:7/8] x7 |[M:3/4] x6 |[M:5/8] z2 B, A,2 |] %19

